src/icons/hiking.svg

<svg width="28" height="28" viewBox="0 0 28 28" fill="none" xmlns="http://www.w3.org/2000/svg">
<g clip-path="url(#clip0)">
<path fill-rule="evenodd" clip-rule="evenodd" d="M15.4 3.77746C15.4 2.20574 14.1148 0.920532 12.5431 0.920532C10.9715 0.920532 9.68632 2.20574 9.68632 3.77746C9.68632 5.3491 10.9715 6.63439 12.5431 6.63439C14.1148 6.63439 15.4 5.3491 15.4 3.77746ZM10.7252 3.77746C10.7252 2.76717 11.533 1.95939 12.5431 1.95939C13.5533 1.95939 14.3611 2.76717 14.3611 3.77746C14.3611 4.78767 13.5533 5.59553 12.5431 5.59553C11.533 5.59553 10.7252 4.78767 10.7252 3.77746ZM12.1698 8.45247C11.3072 8.45247 10.618 9.13746 10.6116 9.99856V10.5302H10.6115V16.9199C10.6115 17.9111 10.4217 18.8928 10.0536 19.8132L7.7012 25.6991L9.82305 25.4532L12.736 19.1416L12.8077 19.1748L12.0623 18.4294L12.7968 17.6928L14.8887 19.7868C15.4876 20.3857 15.7562 21.2395 15.609 22.0736L15.1215 24.8393L16.6689 24.6601L17.6401 20.5802C17.7608 20.0731 17.6214 19.5397 17.2667 19.1578L15.2012 16.9339C14.7552 16.4535 14.5072 15.8219 14.5072 15.1666V11.291L13.9797 10.9744L14.5153 10.0836L18.2872 12.3481H21.5194C21.8125 12.3481 22.0388 12.1215 22.0388 11.8286V11.5691C22.0388 11.2762 21.8125 11.0497 21.5194 11.0497H18.2528L14.7304 8.84609C14.3176 8.58813 13.8395 8.45247 13.3527 8.45247H12.1698ZM15.5461 11.9146L17.9992 13.387H21.5194C22.3738 13.387 23.0777 12.6831 23.0777 11.8286V11.5691C23.0777 10.7146 22.3738 10.0108 21.5194 10.0108H18.551L15.2803 7.9654C14.7024 7.60437 14.0341 7.41361 13.3527 7.41361H12.1698C11.5779 7.41361 11.0306 7.61435 10.5926 7.95109C10.4749 7.20951 9.82563 6.63439 9.0533 6.63439H7.23325C6.3788 6.63439 5.67498 7.33831 5.67498 8.1928C5.67568 8.83139 6.07017 9.39136 6.63325 9.62938L5.98349 10.6682C5.78288 10.9891 5.67703 11.361 5.67703 11.7395V16.7635C5.67703 17.618 6.38084 18.3218 7.23529 18.3218H9.4256C9.34567 18.6985 9.23348 19.0686 9.08983 19.4277L6.52615 25.8352L-0.296648 26.6257V27.6708L28.791 24.3006V23.2556L22.0389 24.0379V14.1662H21V24.1583L17.767 24.5328L18.6505 20.8197C18.8513 19.9761 18.6175 19.0871 18.0276 18.4518L15.962 16.2277C15.6943 15.9395 15.5461 15.5601 15.5461 15.1667V11.9146ZM8.53181 9.75109H7.78167L6.86401 11.218C6.76636 11.3739 6.71587 11.5557 6.71587 11.7395V16.7635C6.71587 17.0564 6.94234 17.283 7.23529 17.283H9.56292C9.56942 17.1622 9.57268 17.0411 9.57268 16.9199V10.0108L9.57273 9.99529V8.1928C9.57273 7.8995 9.34636 7.67325 9.0533 7.67325H7.23532C6.94227 7.67325 6.7159 7.89989 6.7159 8.1928C6.7159 8.47314 6.94538 8.71368 7.23127 8.71211H8.53181V9.75109ZM14.1542 20.5213L13.5314 19.8986L11.0325 25.3131L14.0451 24.9641L14.5864 21.893C14.6747 21.3916 14.5137 20.8812 14.1542 20.5213ZM22.0389 9.49142V8.45256H21V9.49142H22.0389Z" fill="#5E7E29"/>
</g>
<defs>
<clipPath id="clip0">
<rect width="26.5429" height="26.5429" fill="white" transform="matrix(-1 0 0 1 27.5195 0.920532)"/>
</clipPath>
</defs>
</svg>

<svg width="28" height="28" fill="none" xmlns="http://www.w3.org/2000/svg"><g clip-path="url(#clip0)"><path fill-rule="evenodd" clip-rule="evenodd" d="M15.4 3.777A2.865 2.865 0 0012.543.921a2.865 2.865 0 00-2.857 2.856 2.865 2.865 0 002.857 2.857A2.865 2.865 0 0015.4 3.777zm-4.675 0a1.81 1.81 0 011.818-1.818 1.81 1.81 0 011.818 1.818 1.81 1.81 0 01-1.818 1.819 1.81 1.81 0 01-1.818-1.819zm1.445 4.675A1.55 1.55 0 0010.612 10V16.92c0 .991-.19 1.973-.558 2.893L7.7 25.7l2.122-.246 2.913-6.311.072.033-.746-.746.735-.736 2.092 2.094c.599.599.867 1.453.72 2.287l-.488 2.765 1.548-.179.971-4.08a1.559 1.559 0 00-.373-1.422L15.2 16.934a2.598 2.598 0 01-.694-1.767V11.29l-.527-.317.535-.89 3.772 2.264h3.232c.294 0 .52-.227.52-.52v-.259a.512.512 0 00-.52-.52h-3.266L14.73 8.847a2.6 2.6 0 00-1.377-.394H12.17zm3.376 3.463L18 13.387h3.52c.855 0 1.559-.704 1.559-1.558v-.26c0-.854-.704-1.558-1.559-1.558h-2.968l-3.27-2.046a3.638 3.638 0 00-1.928-.551H12.17c-.592 0-1.14.2-1.577.537a1.568 1.568 0 00-1.54-1.317h-1.82c-.854 0-1.558.704-1.558 1.559 0 .638.395 1.198.958 1.436l-.65 1.04c-.2.32-.306.692-.306 1.07v5.024c0 .855.704 1.559 1.558 1.559h2.19a6.75 6.75 0 01-.335 1.106l-2.564 6.407-6.823.79v1.046l29.088-3.37v-1.045l-6.752.782v-9.872H21v9.992l-3.233.375.884-3.713a2.597 2.597 0 00-.623-2.368l-2.066-2.224a1.559 1.559 0 01-.416-1.061v-3.252zM8.532 9.75h-.75l-.918 1.467a.984.984 0 00-.148.521v5.024c0 .293.226.52.52.52h2.327c.006-.12.01-.242.01-.363V8.193a.512.512 0 00-.52-.52H7.235a.512.512 0 00-.52.52c0 .28.23.52.516.52h1.3V9.75zm5.622 10.77l-.623-.622-2.498 5.414 3.012-.349.541-3.071a1.556 1.556 0 00-.432-1.372zm7.885-11.03V8.453H21V9.49h1.039z" fill="#5E7E29"/></g><defs><clipPath id="clip0"><path fill="#fff" transform="matrix(-1 0 0 1 27.52 .92)" d="M0 0h26.543v26.543H0z"/></clipPath></defs></svg>
